images/mail.svg

<svg enable-background="new 0 0 80 40" viewBox="0 0 80 40" xmlns="http://www.w3.org/2000/svg"><path d="m57.9 4.5h-35.8c-2 0-3.6 1.6-3.6 3.6v24c0 1 .4 1.9 1.1 2.6s1.6 1 2.5 1h35.7c2 0 3.6-1.6 3.6-3.6v-24.1c0-1.9-1.6-3.5-3.5-3.5zm-.2 1.9-13.5 11c-1.3 1-2.7 1.5-4.2 1.5-1.4 0-2.9-.5-4.1-1.5l-13.6-11zm-37.2 1.1 13.2 10.9-13.2 13.8zm1.3 26.2 13.5-14.2.3.2c2.7 1.7 6 1.7 8.7 0l.3-.2 13.5 14.2zm37.7-1.5-13.3-13.9 13.3-10.8z"/><path d="m79 19h-7.6c-.6 0-1 .4-1 1s.4 1 1 1h7.6c.6 0 1-.4 1-1s-.4-1-1-1z"/><path d="m68.7 36.5 6.7 3.5c.1.1.3.1.4.1.6 0 1-.4 1-1 0-.4-.2-.7-.5-.9l-6.7-3.5c-.5-.2-1.1 0-1.3.5-.3.5-.1 1 .4 1.3z"/><path d="m69.1 5.4c.2 0 .3 0 .4-.1l6.7-3.5c.6-.2.8-.8.5-1.3s-.8-.6-1.3-.4l-6.7 3.5c-.5.3-.7.9-.4 1.3.1.3.5.6.8.5z"/><path d="m1 21h7.6c.6 0 1-.4 1-1s-.4-1-1-1h-7.6c-.6 0-1 .4-1 1s.4 1 1 1z"/><path d="m11.8 4.9c.3-.5.1-1.1-.4-1.3l-6.8-3.5c-.5-.2-1.1 0-1.3.5-.3.5-.1 1 .4 1.3l6.7 3.5c.1.1.3.1.4.1.4 0 .8-.3 1-.6z"/><path d="m3.3 39.5c.2.3.5.5.9.5.2 0 .3 0 .4-.1l6.7-3.5c.5-.3.7-.9.4-1.4s-.8-.6-1.3-.4l-6.7 3.5c-.5.3-.7.9-.4 1.4z"/></svg>

<?xml version="1.0" encoding="utf-8"?>
<!-- Generator: Adobe Illustrator 24.0.1, SVG Export Plug-In . SVG Version: 6.00 Build 0)  -->
<svg version="1.1" id="Layer_1" xmlns="http://www.w3.org/2000/svg" xmlns:xlink="http://www.w3.org/1999/xlink" x="0px" y="0px"
	 viewBox="0 0 80 40" style="enable-background:new 0 0 80 40;" xml:space="preserve">
<title>Asset 1</title>
<path d="M57.9,4.5H22.1c-2,0-3.6,1.6-3.6,3.6v24c0,1,0.4,1.9,1.1,2.6c0.7,0.7,1.6,1,2.5,1h35.7c2,0,3.6-1.6,3.6-3.6V8
	C61.4,6.1,59.8,4.5,57.9,4.5z M57.7,6.4l-13.5,11c-1.3,1-2.7,1.5-4.2,1.5c-1.4,0-2.9-0.5-4.1-1.5l-13.6-11H57.7z M20.5,7.5
	l13.2,10.9L20.5,32.2V7.5z M21.8,33.7l13.5-14.2l0.3,0.2c2.7,1.7,6,1.7,8.7,0l0.3-0.2l13.5,14.2H21.8z M59.5,32.2L46.2,18.3
	L59.5,7.5V32.2z"/>
<title>Asset 1</title>
<g id="Layer_2_1_">
	<g id="Layer_1-2">
		<path d="M79,19h-7.6c-0.6,0-1,0.4-1,1s0.4,1,1,1H79c0.6,0,1-0.4,1-1S79.6,19,79,19z"/>
		<path d="M68.7,36.5l6.7,3.5c0.1,0.1,0.3,0.1,0.4,0.1c0.6,0,1-0.4,1-1c0-0.4-0.2-0.7-0.5-0.9l-6.7-3.5c-0.5-0.2-1.1,0-1.3,0.5
			C68,35.7,68.2,36.2,68.7,36.5z"/>
		<path d="M69.1,5.4c0.2,0,0.3,0,0.4-0.1l6.7-3.5C76.8,1.6,77,1,76.7,0.5c-0.3-0.5-0.8-0.6-1.3-0.4l-6.7,3.5
			c-0.5,0.3-0.7,0.9-0.4,1.3C68.4,5.2,68.8,5.5,69.1,5.4z"/>
		<path d="M1,21h7.6c0.6,0,1-0.4,1-1s-0.4-1-1-1H1c-0.6,0-1,0.4-1,1S0.4,21,1,21z"/>
		<path d="M11.8,4.9c0.3-0.5,0.1-1.1-0.4-1.3c0,0,0,0,0,0L4.6,0.1c-0.5-0.2-1.1,0-1.3,0.5C3,1.1,3.2,1.6,3.7,1.9l6.7,3.5
			c0.1,0.1,0.3,0.1,0.4,0.1C11.2,5.5,11.6,5.2,11.8,4.9z"/>
		<path d="M3.3,39.5c0.2,0.3,0.5,0.5,0.9,0.5c0.2,0,0.3,0,0.4-0.1l6.7-3.5c0.5-0.3,0.7-0.9,0.4-1.4c-0.3-0.5-0.8-0.6-1.3-0.4
			l-6.7,3.5C3.2,38.4,3,39,3.3,39.5C3.3,39.5,3.3,39.5,3.3,39.5z"/>
	</g>
</g>
</svg>
